src/components/sprite-info/icon--hide.svg

<?xml version="1.0" encoding="UTF-8" standalone="no"?>
<svg width="16px" height="16px" viewBox="0 0 16 16" version="1.1" xmlns="http://www.w3.org/2000/svg" xmlns:xlink="http://www.w3.org/1999/xlink">
    <!-- Generator: Sketch 43.2 (39069) - http://www.bohemiancoding.com/sketch -->
    <title>hide-icon-active</title>
    <desc>Created with Sketch.</desc>
    <defs></defs>
    <g id="Page-1" stroke="none" stroke-width="1" fill="none" fill-rule="evenodd">
        <g id="hide-icon-active" fill="#00c3ff">
            <g transform="translate(1.000000, 1.000000)" id="Combined-Shape">
                <path d="M2.06675537,10.5669531 C0.999299947,9.6010063 0.49087044,8.63529009 0.49087044,8.63529009 C-0.150519518,7.7321443 -0.176597571,6.24678071 0.49087044,5.36470987 C0.49087044,5.36470987 2.52555986,1.5 6.99999999,1.5 C8.31672118,1.5 9.42216368,1.83467798 10.32665,2.30705842 L11.9737085,0.659999967 L12.6808152,1.36710675 L1.36710675,12.6808152 L0.659999967,11.9737085 L2.06675537,10.5669531 Z M9.06150447,3.57220396 C8.4592531,3.20897321 7.75347776,3 6.99889412,3 C4.7900605,3 2.99944706,4.79061344 2.99944706,6.99944706 C2.99944706,7.75403071 3.20842027,8.45980605 3.57165102,9.06205741 L5.07816645,7.55554198 C5.02727139,7.37916271 5,7.19276614 5,7 C5,5.8954305 5.8954305,5 7,5 C7.19276614,5 7.37916271,5.02727139 7.55554198,5.07816645 L9.06150447,3.57220396 Z M3.68757244,11.7003495 L4.95187601,10.4360459 C5.55070241,10.7935069 6.25081289,10.9988941 6.99889412,10.9988941 C9.2077277,10.9988941 10.9983412,9.20828068 10.9983412,6.99944706 C10.9983412,6.25136583 10.792954,5.55125535 10.435493,4.95242895 L11.9445897,3.44333221 C13.0043028,4.40583676 13.5091295,5.36470987 13.5091295,5.36470987 C14.1505195,6.26785566 14.1765976,7.75321925 13.5091295,8.63529009 C13.5091295,8.63529009 11.4744401,12.5 6.99999999,12.5 C5.69017232,12.5 4.58941688,12.1688172 3.68757244,11.7003495 Z M6.46130696,8.92661494 L8.92661494,6.46130696 C8.9744347,6.63269299 9,6.81336095 9,7 C9,8.1045695 8.1045695,9 7,9 C6.81336095,9 6.63269299,8.9744347 6.46130696,8.92661494 Z"></path>
            </g>
        </g>
    </g>
</svg>

<?xml version="1.0" encoding="UTF-8" standalone="no"?>
<svg
   width="16px"
   height="16px"
   viewBox="0 0 16 16"
   version="1.1"
   id="svg1"
   sodipodi:docname="icon--hide.svg"
   inkscape:version="1.3 (0e150ed6c4, 2023-07-21)"
   xmlns:inkscape="http://www.inkscape.org/namespaces/inkscape"
   xmlns:sodipodi="http://sodipodi.sourceforge.net/DTD/sodipodi-0.dtd"
   xmlns="http://www.w3.org/2000/svg"
   xmlns:svg="http://www.w3.org/2000/svg">
  <sodipodi:namedview
     id="namedview1"
     pagecolor="#505050"
     bordercolor="#ffffff"
     borderopacity="1"
     inkscape:showpageshadow="0"
     inkscape:pageopacity="0"
     inkscape:pagecheckerboard="1"
     inkscape:deskcolor="#505050"
     inkscape:zoom="63.125"
     inkscape:cx="8"
     inkscape:cy="8"
     inkscape:window-width="2100"
     inkscape:window-height="1224"
     inkscape:window-x="-9"
     inkscape:window-y="89"
     inkscape:window-maximized="1"
     inkscape:current-layer="Page-1" />
  <!-- Generator: Sketch 43.2 (39069) - http://www.bohemiancoding.com/sketch -->
  <title
     id="title1">hide-icon-active</title>
  <desc
     id="desc1">Created with Sketch.</desc>
  <defs
     id="defs1" />
  <g
     id="Page-1"
     stroke="none"
     stroke-width="1"
     fill="none"
     fill-rule="evenodd"
     transform="translate(0,0.03168317)">
    <g
       id="hide-icon-active"
       fill="#00c3ff"
       style="fill:#625e97;fill-opacity:1">
      <g
         transform="translate(1,1)"
         id="Combined-Shape"
         style="fill:#625e97;fill-opacity:1">
        <path
           d="M 2.0667554,10.566953 C 0.99929995,9.6010063 0.49087044,8.6352901 0.49087044,8.6352901 c -0.64138996,-0.9031458 -0.66746801,-2.3885094 0,-3.2705802 C 0.49087044,5.3647099 2.5255599,1.5 7,1.5 c 1.3167212,0 2.4221637,0.334678 3.32665,0.8070584 L 11.973709,0.65999997 12.680815,1.3671067 1.3671067,12.680815 0.65999997,11.973709 Z M 9.0615045,3.572204 C 8.4592531,3.2089732 7.7534778,3 6.9988941,3 4.7900605,3 2.9994471,4.7906134 2.9994471,6.9994471 c 0,0.7545836 0.2089732,1.4603589 0.5722039,2.0626103 L 5.0781665,7.555542 C 5.0272714,7.3791627 5,7.1927661 5,7 5,5.8954305 5.8954305,5 7,5 7.1927661,5 7.3791627,5.0272714 7.555542,5.0781665 Z M 3.6875724,11.70035 4.951876,10.436046 c 0.5988264,0.357461 1.2989369,0.562848 2.0470181,0.562848 2.2088336,0 3.9994469,-1.7906133 3.9994469,-3.9994469 0,-0.7480813 -0.205387,-1.4481918 -0.562848,-2.0470182 L 11.94459,3.4433322 c 1.059713,0.9625046 1.56454,1.9213777 1.56454,1.9213777 0.64139,0.9031458 0.667468,2.3885093 0,3.2705802 C 13.50913,8.6352901 11.47444,12.5 7,12.5 5.6901723,12.5 4.5894169,12.168817 3.6875724,11.70035 Z M 6.461307,8.9266149 8.9266149,6.461307 C 8.9744347,6.632693 9,6.8133609 9,7 9,8.1045695 8.1045695,9 7,9 6.8133609,9 6.632693,8.9744347 6.461307,8.9266149 Z"
           id="path1"
           style="fill:#625e97;fill-opacity:1" />
      </g>
    </g>
  </g>
</svg>
